X:828
T:Reel 828
M:4/4
K:Gmaj
L:1/8
B2|G2dB GBdB|cBcd efge|GBdB GBdB|cedc BGGA|GBdB GBdB|cBcd efge|dBGB  (3BBA Ac| (3dcB cA BGG2|dggf g2fg|afdf gedc|Bcde fgfg|a|gbag fddf|gfaf gfag|fgag bgaf|gbaf gfeg|fdcB AGG2|
